projects/samara2/images/icons/clock.svg

<svg width="58" height="70" viewBox="0 0 58 70" fill="none" xmlns="http://www.w3.org/2000/svg">
<path d="M36.4383 30.3186C36.2043 30.2948 35.9575 30.2803 35.7038 30.2803C33.1414 30.2803 30.5893 31.4822 29.0007 33.3917C27.411 31.4822 24.8595 30.2803 22.299 30.2803C22.045 30.2803 21.7996 30.2948 21.5609 30.3186C18.6758 30.6285 16.6458 31.6031 15.3546 33.2979C14.0745 34.9777 13.6571 37.255 14.1153 40.0666C14.7841 44.1454 20.0661 49.1124 24.3095 53.1039L24.4064 53.1953C25.5882 54.3089 26.6092 55.2691 27.2739 55.985C27.364 56.0851 28.1742 56.9722 29.061 56.9722C29.9536 56.9722 30.7461 56.0719 30.8175 55.9859C31.5247 55.2195 32.6708 54.1335 33.8035 53.0624C37.9998 49.0819 43.2221 44.1281 43.8839 40.065C44.3441 37.2556 43.9296 34.9793 42.6481 33.2982C41.3581 31.6027 39.3278 30.6285 36.4383 30.3186Z" fill="white"/>
<path d="M49.578 22.4999L52.7078 19.1981C53.5325 18.3279 53.4958 16.9541 52.6262 16.1296L50.0005 13.6408C49.1304 12.8159 47.7568 12.8528 46.9321 13.723L43.3519 17.4994C40.5289 15.8247 37.3908 14.6287 34.0496 14.0225V9.40592H38.3156C39.5147 9.40592 40.4864 8.43408 40.4864 7.23532V2.1706C40.4864 0.9717 39.5147 0 38.3156 0H19.685C18.486 0 17.5143 0.9717 17.5143 2.1706V7.23532C17.5143 8.43408 18.486 9.40592 19.685 9.40592H23.8898V14.034C20.5017 14.6565 17.3229 15.8845 14.4716 17.6043C14.4499 17.5817 14.4298 17.5581 14.407 17.5364L10.3378 13.6786C9.46747 12.8541 8.09387 12.8905 7.2691 13.7607L4.78034 16.3866C3.95587 17.2562 3.99231 18.6302 4.86249 19.4548L8.25931 22.6752C3.62194 27.7052 0.78421 34.4189 0.78421 41.7838C0.78421 57.3423 13.4418 70 29.0001 70C44.5586 70 57.2158 57.3423 57.2158 41.7838C57.2161 34.333 54.3122 27.5486 49.578 22.4999ZM29.0002 64.9382C16.2331 64.9382 5.84605 54.5513 5.84605 41.7838C5.84605 29.0164 16.2329 18.6293 29.0002 18.6293C41.7676 18.6293 52.1544 29.0164 52.1544 41.7838C52.1544 54.5511 41.7674 64.9382 29.0002 64.9382Z" fill="white"/>
</svg>

<svg width="58" height="70" fill="none" xmlns="http://www.w3.org/2000/svg"><path d="M36.438 30.319a7.275 7.275 0 00-.734-.039c-2.563 0-5.115 1.202-6.703 3.112-1.59-1.91-4.142-3.112-6.702-3.112-.254 0-.5.015-.738.039-2.885.31-4.915 1.284-6.206 2.979-1.28 1.68-1.698 3.957-1.24 6.769.67 4.078 5.951 9.045 10.194 13.037l.097.091c1.182 1.114 2.203 2.074 2.868 2.79.09.1.9.987 1.787.987.893 0 1.685-.9 1.756-.986.708-.767 1.854-1.852 2.986-2.924 4.197-3.98 9.42-8.934 10.08-12.997.461-2.81.047-5.086-1.235-6.767-1.29-1.695-3.32-2.67-6.21-2.98z" fill="#fff"/><path d="M49.578 22.5l3.13-3.302a2.17 2.17 0 00-.082-3.068l-2.625-2.49a2.17 2.17 0 00-3.069.083l-3.58 3.776a28.025 28.025 0 00-9.302-3.476V9.405h4.266a2.17 2.17 0 002.17-2.17V2.17A2.17 2.17 0 0038.316 0H19.685a2.17 2.17 0 00-2.17 2.17v5.065a2.17 2.17 0 002.17 2.17h4.205v4.629a28.028 28.028 0 00-9.418 3.57c-.022-.022-.042-.046-.065-.068l-4.07-3.857a2.17 2.17 0 00-3.068.082L4.78 16.387a2.17 2.17 0 00.082 3.068l3.397 3.22C3.622 27.705.784 34.42.784 41.784.784 57.342 13.442 70 29 70c15.559 0 28.216-12.658 28.216-28.216 0-7.451-2.904-14.235-7.638-19.284zM29 64.938c-12.767 0-23.154-10.387-23.154-23.154 0-12.768 10.387-23.155 23.154-23.155 12.768 0 23.154 10.387 23.154 23.155 0 12.767-10.387 23.154-23.154 23.154z" fill="#fff"/></svg>
